!!!COM: Palestrina, Giovanni Perluigi da
!!!OPR: Tu es Petrus (1887)
!!!OTL: Gloria
**kern	**kern	**kern	**kern	**kern	**kern
*Ibass	*Ibarit	*Itenor	*Icalto	*Icant	*Icant
!Bassus	!Baritone	!Tenor	!Altus	!Cantus 2	!Cantus 1
*clefF4	*clefF4	*clefGv2	*clefG2	*clefG2	*clefG2
*k[]	*k[]	*k[]	*k[]	*k[]	*k[]
*G:mix	*G:mix	*G:mix	*G:mix	*G:mix	*G:mix
*M4/2	*M4/2	*M4/2	*M4/2	*M4/2	*M4/2
=1	=1	=1	=1	=1	=1
0r	0r	0r	1.g	1.b	0dd
.	.	.	4f#	4a	.
.	.	.	4e	4g	.
=2	=2	=2	=2	=2	=2
0r	0r	1r	2f#	2a	1dd
.	.	.	2g	2b	.
.	.	2r	1c	2.cc	1ee
.	.	[2g	.	.	.
.	.	.	.	4b	.
=3	=3	=3	=3	=3	=3
0r	0r	2g]	1.d	1a	2.dd
.	.	4f#	.	.	.
.	.	4e	.	.	8cc
.	.	.	.	.	8b
.	.	2f#	.	1dd	2a
.	.	2g	2G	.	2b
=4	=4	=4	=4	=4	=4
0r	0r	2c	2r	1ee	1cc
.	.	2c	2.g	.	.
.	.	2d	.	1dd	1a
.	.	.	4f#	.	.
.	.	2d	2f#	.	.
=5	=5	=5	=5	=5	=5
0r	0r	2G	2g	2dd	2b
.	.	2g	2e	2ee	2cc
.	.	1a	4d	1ff	1dd
.	.	.	4e	.	.
.	.	.	4f	.	.
.	.	.	4g	.	.
=6	=6	=6	=6	=6	=6
0r	0r	1.A	2a	1.ee	2cc
.	.	.	1cc	.	2a
.	.	.	.	.	2cc
.	.	2B	2b	2dd	2dd
=7	=7	=7	=7	=7	=7
0r	0r	2c	2a	2.cc	1ee
.	.	2c	1g	.	.
.	.	.	.	4b	.
.	.	1d	.	1a	1dd
.	.	.	2f#	.	.
=8	=8	=8	=8	=8	=8
1G	1B	2G	2g	1b	0dd
.	.	2d	1g	.	.
2G	2B	1d	.	1r	.
4F#	4A	.	[2a	.	.
4E	4G	.	.	.	.
=9	=9	=9	=9	=9	=9
2F#	2A	1d	2a]	1r	0r
2G	2B	.	2g	.	.
4C	2c	2e	1g	2r	.
4D	.	.	.	.	.
4E	[2c	[2g	.	[2ee	.
4F	.	.	.	.	.
=10	=10	=10	=10	=10	=10
1G	2c]	2g]	2r	2ee]	0r
.	4B	2g	1d	4dd	.
.	4A	.	.	4cc	.
1r	2B	2.g	.	2dd	.
.	2c	.	2c	2ee	.
.	.	4g	.	.	.
=11	=11	=11	=11	=11	=11
1r	2F	1a	2cc	2ff	1r
.	2F	.	2cc	2ff	.
2r	2c	1g	1cc	1ee	2r
[2c	4C	.	.	.	[2ee
.	4D	.	.	.	.
=12	=12	=12	=12	=12	=12
2c]	4E	2r	1g	0gg	2ee]
.	4F	.	.	.	.
4B	1G	1g	.	.	4dd
4A	.	.	.	.	4cc
2B	.	.	2r	.	2dd
2c	2C	2g	[2cc	.	2ee
=13	=13	=13	=13	=13	=13
2F	1r	2a	2cc]	1r	2ff
2F	.	2a	2cc	.	2ff
1c	2r	4g	2cc	2r	2.ee
.	.	4f	.	.	.
.	2c	4e	2cc	2ee	.
.	.	4d	.	.	4ff
=14	=14	=14	=14	=14	=14
2r	2c	2c	1g	2ee	1gg
2G	4B	2d	.	4dd	.
.	4A	.	.	4cc	.
2G	2B	2d	2r	2dd	2g
2C	2c	2c	2g	2ee	4g
.	.	.	.	.	4a
=15	=15	=15	=15	=15	=15
0G	4G	1d	2g	1dd	4b
.	4A	.	.	.	4cc
.	4B	.	4G	.	1dd
.	4c	.	4A	.	.
.	1d	2G	4B	2.b	.
.	.	.	4c	.	.
.	.	[2d	4d	.	2b
.	.	.	4e	4cc	.
=16	=16	=16	=16	=16	=16
0D	0d	4d]	2f#	0dd	2a
.	.	4c	.	.	.
.	.	2B	1g	.	2g
.	.	1A	.	.	1a
.	.	.	2f#	.	.
=17	=17	=17	=17	=17	=17
1G	1B	1G	1g	1dd	1b
1r	1r	1r	1r	1r	1r
=18	=18	=18	=18	=18	=18
0r	1.A	0r	1.a	1.cc#	1.ee
.	2A	.	2a	2cc#	2ee
=19	=19	=19	=19	=19	=19
1r	1A	2r	1a	1cc#	1ee
.	.	1A	.	.	.
1D	[1d	.	[1f#	[1dd	[1a
.	.	2A	.	.	.
=20	=20	=20	=20	=20	=20
2D	1d]	2A	1f#]	1dd]	1a]
2D	.	1d	.	.	.
2G	1B	.	1g	1dd	1b
2G	.	2G	.	.	.
=21	=21	=21	=21	=21	=21
1C	1c	2G	1g	2.cc	1ee
.	.	2.c	.	.	.
.	.	.	.	4dd	.
2.c	1A	.	2r	2ee	[1cc
.	.	4d	.	.	.
.	.	4e	[2cc	[2a	.
4B	.	8d	.	.	.
.	.	8e	.	.	.
=22	=22	=22	=22	=22	=22
4A	2.F	1f	4cc]	4a]	0cc]
4G	.	.	4b	4b	.
4F	.	.	4a	2cc	.
4E	4G	.	4g	.	.
1F	2.A	1c	4f	4a	.
.	.	.	4g	4b	.
.	.	.	2a	4cc	.
.	4B	.	.	4dd	.
=23	=23	=23	=23	=23	=23
1C	0c	2r	1g	1ee	1cc
.	.	1g	.	.	.
2r	.	.	2r	[1cc	[1ee
[2c	.	2c	[2g	.	.
=24	=24	=24	=24	=24	=24
2c]	0r	2g	2g]	2cc]	2ee]
2F	.	2f	2a	2cc	2ff
2c	.	1e	2g	2.cc	2gg
2A	.	.	2a	.	2cc
.	.	.	.	8b	.
.	.	.	.	8a	.
=25	=25	=25	=25	=25	=25
1G	0r	1g	2d	1b	2dd
.	.	.	2g	.	2ee
1F	.	4a	4cc	1a	4ff
.	.	4g	4b	.	4ee
.	.	4f	2a	.	4dd
.	.	4e	.	.	4cc
=26	=26	=26	=26	=26	=26
2G	0r	2d	2g	0r	2b
2A	.	2c	2f	.	1cc
1G	.	1d	2.g	.	.
.	.	.	.	.	2b
.	.	.	4f	.	.
=27	=27	=27	=27	=27	=27
1C	2r	2c	1e	2r	2cc
.	2.c	2.g	.	2.ee	2.cc
1r	.	.	1r	.	.
.	4c	4g	.	4ee	4cc
.	2B	2g	.	2dd	2dd
=28	=28	=28	=28	=28	=28
0r	1c	1g	0r	1cc	1ee
.	2G	1g	.	2b	2dd
.	[2c	.	.	[2cc	[2ee
=29	=29	=29	=29	=29	=29
1r	2c]	2g	0r	2cc]	2ee]
.	2B	2g	.	2dd	2dd
2r	1A	2c	.	2ee	2cc
[2c	.	2c	.	2ff#	2cc
=30	=30	=30	=30	=30	=30
2c]	1G	0r	2r	1gg	2ee
2B	.	.	1g	.	2dd
1c	2r	.	.	2r	1ee
.	[2c	.	2g	[2ee	.
=31	=31	=31	=31	=31	=31
1G	2c]	2r	2.g	2ee]	0gg
.	2B	1g	.	2dd	.
.	.	.	4f	.	.
2r	1c	.	4e	1ee	.
.	.	.	4d	.	.
2c	.	2g	2c	.	.
=32	=32	=32	=32	=32	=32
2c	2G	1g	2.d	1dd	0r
2B	2G	.	.	.	.
.	.	.	4e	.	.
2.A	2.F	1c	4f	2r	.
.	.	.	4g	.	.
.	.	.	[2a	4a	.
4G	4G	.	.	4b	.
=33	=33	=33	=33	=33	=33
2F	4A	1c	2a]	4cc	0r
.	4B	.	.	4dd	.
2E	1c	.	2g	2ee	.
1D	.	2d	2f	2ff	.
.	2B	2d	2f	2dd	.
=34	=34	=34	=34	=34	=34
1C	2c	2G	2e	1ee	2r
.	1c	1g	1e	.	1cc
1r	.	.	.	1r	.
.	2c	2e	2g	.	2cc
=35	=35	=35	=35	=35	=35
0r	1F	1f	1a	0r	1cc
.	2G	2d	1g	.	2b
.	2G	2e	.	.	2b
=36	=36	=36	=36	=36	=36
0r	4F	1f	1c	1.cc	4a
.	4G	.	.	.	4b
.	4A	.	.	.	4cc
.	4B	.	.	.	4dd
.	2c	1e	1r	.	2ee
.	2e	.	.	2cc	2gg
=37	=37	=37	=37	=37	=37
0r	2d	2a	1r	2.dd	2gg
.	2d	2a	.	.	2ff#
.	.	.	.	4dd	.
.	1G	1g	2r	1dd	[1gg
.	.	.	[2g	.	.
=38	=38	=38	=38	=38	=38
0C	0c	2.e	2g]	2r	1gg]
.	.	.	4c	1ee	.
.	.	4f	4d	.	.
.	.	1g	4e	.	1ee
.	.	.	4f	.	.
.	.	.	4g	[2cc	.
.	.	.	4e	.	.
=39	=39	=39	=39	=39	=39
0F	0A	0a	4f	4cc]	2.cc
.	.	.	4g	4b	.
.	.	.	4a	4a	.
.	.	.	4b	4g	4b
.	.	.	1cc	2f	4a
.	.	.	.	.	4g
.	.	.	.	[2ff	2f
=40	=40	=40	=40	=40	=40
0D	1d	2.a	2.f	4ff]	2.ff
.	.	.	.	4ee	.
.	.	.	.	4dd	.
.	.	4g	4g	4cc	4ee
.	1d	4f	1a	4dd	4dd
.	.	4e	.	4ee	4cc
.	.	2d	.	2ff	2dd
=41	=41	=41	=41	=41	=41
1A	2r	0e	2a	2ee	2cc#
.	2.A	.	2.a	2.cc#	2.ee
1r	.	.	.	.	.
.	4A	.	4a	4cc#	4ee
.	2A	.	2a	2cc#	2ee
=42	=42	=42	=42	=42	=42
0r	1d	0r	1f#	1dd	1a
.	2G	.	1g	2dd	2b
.	[2c	.	.	[2ee	[2cc
=43	=43	=43	=43	=43	=43
0r	2c]	0r	1g	2ee]	2cc]
.	2B	.	.	2dd	2dd
.	1c	.	2e	2.cc	1ee
.	.	.	[2g	.	.
.	.	.	.	4b	.
=44	=44	=44	=44	=44	=44
2r	0d	2r	2g]	0a	1dd
2.D	.	2.A	4f#	.	.
.	.	.	4e	.	.
.	.	.	1f#	.	2r
4D	.	4A	.	.	.
2D	.	2A	.	.	[2dd
=45	=45	=45	=45	=45	=45
1G	2r	1B	1g	1g	4dd]
.	.	.	.	.	4dd
.	2.G	.	.	.	2dd
1C	.	2.c	[1e	2r	1ee
.	4G	.	.	.	.
.	2G	.	.	[2g	.
.	.	4d	.	.	.
=46	=46	=46	=46	=46	=46
2r	2.c	0e	2e]	4g]	1ee
.	.	.	.	4g	.
2.C	.	.	2c	2g	.
.	4B	.	.	.	.
.	2A	.	1c	2.cc	2r
4C	.	.	.	.	.
2C	2G	.	.	.	[2cc
.	.	.	.	4b	.
=47	=47	=47	=47	=47	=47
2.F	0A	2r	1c	[0a	4cc]
.	.	.	.	.	4cc
.	.	2c	.	.	2cc
4E	.	.	.	.	.
2D	.	2d	2r	.	2ff
2C#	.	2e	[2A	.	[2ee
=48	=48	=48	=48	=48	=48
1D	2.F	1f	2A]	0a]	4ee]
.	.	.	.	.	4dd
.	.	.	2.a	.	1dd
.	4G	.	.	.	.
1AA	1A	1e	.	.	.
.	.	.	4g	.	.
.	.	.	2e	.	2cc#
=49	=49	=49	=49	=49	=49
0D	0A	0d	0f#	0a	0dd
=50	=50	=50	=50	=50	=50
0G	1r	0d	0g	0b	0dd
.	[1G	.	.	.	.
=51	=51	=51	=51	=51	=51
0C	1G]	0c	0g	1.cc	0ee
.	1c	.	.	.	.
.	.	.	.	4g	.
.	.	.	.	4a	.
=52	=52	=52	=52	=52	=52
1.G	2.B	1d	1g	4b	1dd
.	.	.	.	4a	.
.	.	.	.	4b	.
.	4A	.	.	4cc	.
.	4G	1g	1b	2dd	2r
.	4A	.	.	.	.
2G	4B	.	.	2dd	2dd
.	4c	.	.	.	.
=53	=53	=53	=53	=53	=53
2D	2d	2f	2a	2ff	2dd
2D	2d	2f	2a	2ff	2dd
1F	2A	2f	1a	1ff	1cc
.	2A	4c	.	.	.
.	.	4d	.	.	.
=54	=54	=54	=54	=54	=54
1C	1c	4e	2g	2ee	1cc
.	.	4d	.	.	.
.	.	4e	1cc	1ee	.
.	.	4f	.	.	.
1r	1G	1g	.	.	2r
.	.	.	2b	2dd	[2gg
=55	=55	=55	=55	=55	=55
0r	0r	0r	1.a	1.cc	2gg]
.	.	.	.	.	2ff
.	.	.	.	.	2.ee
.	.	.	4g	2b	.
.	.	.	4f	.	4dd
=56	=56	=56	=56	=56	=56
0r	0r	0r	2e	2cc	2ee
.	.	.	2d	2.dd	2ff
.	.	.	1a	.	2ee
.	.	.	.	4cc	.
.	.	.	.	[2cc	4dd
.	.	.	.	.	4cc
=57	=57	=57	=57	=57	=57
0G	1r	0d	1g	2cc]	1dd
.	.	.	.	4b	.
.	.	.	.	4a	.
.	[1G	.	2r	2b	2dd
.	.	.	2g	2dd	2b
=58	=58	=58	=58	=58	=58
0C	1G]	0c	0g	0ee	1.cc
.	1c	.	.	.	.
.	.	.	.	.	4g
.	.	.	.	.	4a
=59	=59	=59	=59	=59	=59
1.G	2.B	1d	1g	1dd	4b
.	.	.	.	.	4a
.	.	.	.	.	4b
.	4A	.	.	.	4cc
.	4G	1g	1b	2r	2dd
.	4A	.	.	.	.
2G	4B	.	.	2dd	2dd
.	4c	.	.	.	.
=60	=60	=60	=60	=60	=60
2D	2d	1.f	2a	2dd	1ff
2D	2d	.	2a	2dd	.
1F	2A	.	1a	[1cc	1ff
.	2A	2c	.	.	.
=61	=61	=61	=61	=61	=61
1C	1c	1e	1g	1cc]	1ee
2r	1G	1g	2r	2b	2dd
[2G	.	.	[2g	[2dd	[2b
=62	=62	=62	=62	=62	=62
2G]	2r	2r	2g]	2dd]	2b]
2G	1G	1d	2g	2dd	2b
1G	.	.	[1g	1dd	1b
.	2G	2d	.	.	.
=63	=63	=63	=63	=63	=63
0r	0G	2d	1g]	2r	2r
.	.	1g	.	1dd	1b
.	.	.	2r	.	.
.	.	2g	[2g	2dd	2b
=64	=64	=64	=64	=64	=64
0r	0r	2c	2g]	2ee	2cc
.	.	2c	2g	2ee	2cc
.	.	4G	2g	2.dd	2b
.	.	4A	.	.	.
.	.	4B	2g	.	2b
.	.	4c	.	4ee	.
=65	=65	=65	=65	=65	=65
0r	0r	2d	4f	2ff	4a
.	.	.	4g	.	4b
.	.	4c	4a	2.ee	4cc
.	.	4B	4b	.	4dd
.	.	2A	2cc	.	4ee
.	.	.	.	8dd	4ff
.	.	.	.	8cc	.
.	.	2e	2g	2b	[2gg
=66	=66	=66	=66	=66	=66
1r	1r	1d	1a	1dd	2gg]
.	.	.	.	.	2ff#
1G	1B	2G	2b	2dd	1gg
.	.	2d	2g	2dd	.
=67	=67	=67	=67	=67	=67
1C	1c	1e	1g	1cc	2r
.	.	.	.	.	2g
[1G	[1B	[1d	1g	1dd	1b
=68	=68	=68	=68	=68	=68
1G]	1B]	1d]	2r	2r	2dd
.	.	.	1g	1b	2dd
1r	1r	1r	.	.	2.ee
.	.	.	[2a	[2cc	.
.	.	.	.	.	4cc
=69	=69	=69	=69	=69	=69
1r	1r	2r	4a]	4cc]	2cc
.	.	.	4f#	4a	.
.	.	1d	2f#	2a	1dd
1G	2r	.	2.g	1b	.
.	2B	[2e	.	.	2g
.	.	.	4f	.	.
=70	=70	=70	=70	=70	=70
2.A	2.c	4e]	2e	1a	0r
.	.	4c	.	.	.
.	.	2c	2A	.	.
4F#	4A	.	.	.	.
2F#	2A	1d	1r	1r	.
[2G	[2B	.	.	.	.
=71	=71	=71	=71	=71	=71
2G]	2B]	2B	0r	0r	0r
2E	2G	2c	.	.	.
2F	2A	2d	.	.	.
2G	2B	2e	.	.	.
=72	=72	=72	=72	=72	=72
2A	2c	2f	2r	0r	1r
2B	1d	2.g	2d	.	.
1c	.	.	2e	.	2r
.	.	4f	.	.	.
.	2c	2e	2g	.	2cc
=73	=73	=73	=73	=73	=73
1G	2c	1d	1g	2r	1dd
.	2B	.	.	2g	.
1C	2.c	1c	2.e	2g	[1ee
.	.	.	.	[2cc	.
.	8B	.	4f	.	.
.	8A	.	.	.	.
=74	=74	=74	=74	=74	=74
0r	1G	0r	1g	2cc]	2ee]
.	.	.	.	2b	2dd
.	1r	.	4c	1ee	1cc
.	.	.	4d	.	.
.	.	.	4e	.	.
.	.	.	4f	.	.
=75	=75	=75	=75	=75	=75
2r	1r	2r	2g	1dd	2b
1G	.	1B	1g	.	1b
.	[1d	.	.	2r	.
2G	.	2B	2g	[2dd	2b
=76	=76	=76	=76	=76	=76
2.G	2d]	1B	1g	2dd]	2.b
.	2d	.	.	2dd	.
8F	.	.	.	.	8a
8E	.	.	.	.	8g
1D	2.d	2r	2.f	2dd	1a
.	.	2d	.	[2dd	.
.	8c	.	4g	.	.
.	8B	.	.	.	.
=77	=77	=77	=77	=77	=77
0r	2A	2e	1a	4dd]	2r
.	.	.	.	4dd	.
.	2A	2f	.	2cc	2a
.	2G	2g	1r	2b	2b
.	2F	2a	.	[2a	2cc
=78	=78	=78	=78	=78	=78
1r	1B-	1d	2r	2a]	1dd
.	.	.	2d	2g	.
2r	1A	1r	2e	2a	1cc
2A	.	.	2f	2a	.
=79	=79	=79	=79	=79	=79
2G	0r	1r	2g	2b	0r
2F	.	.	1a	2cc	.
2B-	.	2r	.	2dd	.
2B-	.	2d	2g	2dd	.
=80	=80	=80	=80	=80	=80
1A	1r	2e	1a	2.cc	2r
.	.	2f	.	.	2a
.	.	.	.	4dd	.
1r	2r	1g	1e	1ee	2b
.	2e	.	.	.	2cc
=81	=81	=81	=81	=81	=81
0r	2d	1.a	2f	2r	2dd
.	2c	.	2e	2ee	1ee
.	1f	.	2r	2cc	.
.	.	2d	2a	2dd	[2dd
=82	=82	=82	=82	=82	=82
0r	2e	1g	2b	2ee	2dd]
.	2e	.	2g	1gg	2cc#
.	[1d	1r	[1a	.	[1dd
.	.	.	.	4ff#	.
.	.	.	.	4ee	.
=83	=83	=83	=83	=83	=83
1r	1d]	1r	1a]	2ff#	1dd]
.	.	.	.	2ff#	.
[1C	[1c	[1e	[1cc	1gg	[1ee
=84	=84	=84	=84	=84	=84
2C]	2c]	2e]	1cc]	1.g	0ee]
2D	4B	2f	.	.	.
.	4A	.	.	.	.
2E	[1G	[1g	[1b	.	.
2F	.	.	.	2a	.
=85	=85	=85	=85	=85	=85
1.G	2G]	1g]	0b]	2b	1dd
.	2A	.	.	2cc	.
.	1B	1G	.	2dd	1gg
2G	.	.	.	2dd	.
=86	=86	=86	=86	=86	=86
0F	1c	2.A	0a	0ff	0cc
.	.	4B	.	.	.
.	1A	2c	.	.	.
.	.	2d	.	.	.
=87	=87	=87	=87	=87	=87
0C	1c	0e	1g	1ee	1cc
.	2r	.	2r	1ee	2r
.	2c	.	2g	.	2cc
=88	=88	=88	=88	=88	=88
0r	2B	0r	2g	2dd	2dd
.	2c	.	2g	2cc	2ee
.	2.F	.	2a	2.cc	2ff
.	.	.	2a	.	2ff
.	4F	.	.	4cc	.
=89	=89	=89	=89	=89	=89
2r	1G	2r	2g	2b	0dd
2G	.	2d	2b	2g	.
2F#	1r	2d	2a	2a	.
2G	.	2d	2g	2b	.
=90	=90	=90	=90	=90	=90
2.C	1r	2.e	2.g	2.cc	1r
4C	.	4e	4g	4cc	.
1G	2r	2d	1g	2b	2r
.	2G	2g	.	2dd	2b
=91	=91	=91	=91	=91	=91
0r	2.G	2.g	0r	2.dd	2.b
.	4G	4g	.	4dd	4b
.	1c	1g	.	1ee	1cc
=92	=92	=92	=92	=92	=92
0r	2G	2g	0r	2dd	2b
.	2G	2d	.	2b	2g
.	4F	1f	.	[1cc	4a
.	4G	.	.	.	4b
.	4A	.	.	.	4cc
.	4B	.	.	.	4dd
=93	=93	=93	=93	=93	=93
1r	4c	1e	1r	1cc]	4ee
.	4d	.	.	.	4ff
.	2e	.	.	.	1gg
2r	[1d	1r	1a	1dd	.
2D	.	.	.	.	4ff#
.	.	.	.	.	4ee
=94	=94	=94	=94	=94	=94
2.D	1d]	2r	2.a	2r	1ff#
.	.	2d	.	2dd	.
4D	.	.	4a	.	.
1G	1r	2.d	1b	2.dd	1gg
.	.	4d	.	4dd	.
=95	=95	=95	=95	=95	=95
2E	0r	1e	2b	1gg	0r
2C	.	.	2cc	.	.
4D	.	2d	[1a	2ff	.
4E	.	.	.	.	.
4F	.	2d	.	2ff	.
4G	.	.	.	.	.
=96	=96	=96	=96	=96	=96
4A	1r	1c	2a]	1ee	1r
4B	.	.	.	.	.
1c	.	.	4g	.	.
.	.	.	4f	.	.
.	1G	[1d	[1g	1dd	2r
4B	.	.	.	.	2dd
4A	.	.	.	.	.
=97	=97	=97	=97	=97	=97
1B	2.G	1d]	1g]	2r	2dd
.	.	.	.	2g	2dd
.	4G	.	.	.	.
2c	[1c	2r	1e	2.g	[1ee
2C	.	2g	.	.	.
.	.	.	.	4g	.
=98	=98	=98	=98	=98	=98
2.C	1c]	2.e	2r	1cc	1ee]
.	.	.	2g	.	.
4C	.	4e	.	.	.
1G	2d	1g	2g	2b	2dd
.	2d	.	2d	2g	2b
=99	=99	=99	=99	=99	=99
1F	1A	1.c	1f	4a	1.cc
.	.	.	.	4b	.
.	.	.	.	4cc	.
.	.	.	.	4dd	.
1C	1G	.	2e	4ee	.
.	.	.	.	4ff	.
.	.	2B	2e	[2gg	2g
=100	=100	=100	=100	=100	=100
0D	1r	0A	0d	2gg]	1dd
.	.	.	.	4ff#	.
.	.	.	.	4ee	.
.	1d	.	.	1ff#	2dd
.	.	.	.	.	[2dd
=101	=101	=101	=101	=101	=101
1G	1B	2G	1d	0gg	2dd]
.	.	1d	.	.	1b
1G	2d	.	[1g	.	.
.	2d	2B	.	.	[2dd
=102	=102	=102	=102	=102	=102
1E	0G	1e	2g]	2r	4dd]
.	.	.	.	.	4cc
.	.	.	2g	2.gg	1cc
2G	.	1d	2g	.	.
.	.	.	.	8ff	.
.	.	.	.	8ee	.
2G	.	.	2g	2dd	2b
=103	=103	=103	=103	=103	=103
0C	1.G	0c	0g	2.ee	2.cc
.	.	.	.	4dd	4dd
.	.	.	.	1cc	1ee
.	2A	.	.	.	.
=104	=104	=104	=104	=104	=104
0G	0B	0d	0g	0b	0dd
==	==	==	==	==	==
*-	*-	*-	*-	*-	*-
!!!CDT: 1525/^1526/-1594/2/2
!!!OCY: Italia
!!!AGN: Mass (Parody)
!!!AST: renaissance, vocal
!!!ASW: Motet 1572 (Palestrina)
!!!PWK: Masses, Book 11
!!!RNB: Cadence finals: C,D
!!!YOR: Le Opere Complete, v. 28, p. 268
!!!YOO: Rome, Italy: Fratelli Scalera
!!!END: 1992//
!!!EED: John Miller
!!!YEC: Copyright 2000, John Miller
!!!YEN: United States of America
!!!YEM: Rights to all derivative electronic formats reserved.
!!!YEM: Refer to licensing agreement for further details.
!!!YEM: This file must be accompanied by the licensing agreement.
!!!YEM: A copy of the licensing agreement may be found at http://www.music-cog.ohio-state.edu/HumdrumDatabases/Palestrina/license.txt
!!!EMD: converted to Humdrum by Bret Aarden
